vendor/shopware/storefront/Resources/app/storefront/dist/assets/icon/default/plastic-bag.svg

<svg xmlns="http://www.w3.org/2000/svg" width="24" height="24" viewBox="0 0 24 24">
  <path fill="#758CA3" fill-rule="evenodd" d="M1.67339292,4.5473385 C1.9075196,1.971945 4.06683923,2.03323263e-05 6.65285296,1.72320105e-05 L17.3734331,4.37933931e-06 C19.9594516,1.2790178e-06 22.1187783,1.97192782 22.3529052,4.54732609 L23.9230513,21.8189503 C23.9285242,21.8791523 23.9312649,21.9395714 23.9312649,22.0000216 C23.9312649,23.1045911 23.0358344,24.0000216 21.9312649,24.0000216 L2.09503282,24.0000216 C2.03458254,24.0000216 1.97416335,23.9972809 1.91396133,23.991808 C0.813928067,23.891805 0.0032433831,22.9189834 0.103246407,21.8189501 L1.67339292,4.5473385 Z M3.66517933,4.72840999 L2.09503282,22.0000216 L21.9312649,22.0000216 L20.3611188,4.72839741 C20.2206426,3.18315844 18.9250466,2.00000252 17.3734355,2.00000438 L6.65285535,2.00001723 C5.10124712,2.00001909 3.80565534,3.18317389 3.66517933,4.72840999 Z M9,7 C8.44771525,7 8,6.55228475 8,6 C8,5.44771525 8.44771525,5 9,5 L15,5 C15.5522847,5 16,5.44771525 16,6 C16,6.55228475 15.5522847,7 15,7 L9,7 Z"/>
</svg>

<svg xmlns="http://www.w3.org/2000/svg" width="24" height="24" viewBox="0 0 24 24"><path fill="#758CA3" fill-rule="evenodd" d="M1.6734 4.5473C1.9075 1.972 4.0668 0 6.6529 0h10.7205c2.586 0 4.7454 1.972 4.9795 4.5473l1.5702 17.2717a2 2 0 0 1 .0082.181c0 1.1046-.8955 2-2 2H2.095a2 2 0 0 1-.181-.0082c-1.1-.1-1.9108-1.0728-1.8108-2.1728L1.6734 4.5473zm1.9918.1811L2.095 22h19.8363L20.361 4.7284C20.2206 3.1832 18.9251 2 17.3734 2H6.653C5.1012 2 3.8057 3.1832 3.6652 4.7284zM9 7c-.5523 0-1-.4477-1-1s.4477-1 1-1h6c.5523 0 1 .4477 1 1s-.4477 1-1 1H9z"/></svg>
